icons/ic_trashcan.svg

<svg width="24" height="24" viewBox="0 0 24 24" fill="none" xmlns="http://www.w3.org/2000/svg">
<path d="M13.375 17H14.125C14.2245 17 14.3198 16.9605 14.3902 16.8902C14.4605 16.8198 14.5 16.7245 14.5 16.625V9.875C14.5 9.77554 14.4605 9.68016 14.3902 9.60984C14.3198 9.53951 14.2245 9.5 14.125 9.5H13.375C13.2755 9.5 13.1802 9.53951 13.1098 9.60984C13.0395 9.68016 13 9.77554 13 9.875V16.625C13 16.7245 13.0395 16.8198 13.1098 16.8902C13.1802 16.9605 13.2755 17 13.375 17ZM18.5 6.5H15.9247L14.8622 4.72813C14.7288 4.50594 14.5402 4.32209 14.3147 4.19449C14.0892 4.06688 13.8344 3.99988 13.5753 4H10.4247C10.1657 3.99998 9.91106 4.06704 9.68566 4.19464C9.46025 4.32224 9.27172 4.50603 9.13844 4.72813L8.07531 6.5H5.5C5.36739 6.5 5.24021 6.55268 5.14645 6.64645C5.05268 6.74022 5 6.86739 5 7V7.5C5 7.63261 5.05268 7.75979 5.14645 7.85355C5.24021 7.94732 5.36739 8 5.5 8H6V18.5C6 18.8978 6.15804 19.2794 6.43934 19.5607C6.72064 19.842 7.10218 20 7.5 20H16.5C16.8978 20 17.2794 19.842 17.5607 19.5607C17.842 19.2794 18 18.8978 18 18.5V8H18.5C18.6326 8 18.7598 7.94732 18.8536 7.85355C18.9473 7.75979 19 7.63261 19 7.5V7C19 6.86739 18.9473 6.74022 18.8536 6.64645C18.7598 6.55268 18.6326 6.5 18.5 6.5ZM10.37 5.59094C10.3867 5.56312 10.4104 5.54012 10.4386 5.52418C10.4669 5.50824 10.4988 5.49991 10.5312 5.5H13.4688C13.5011 5.49996 13.533 5.50832 13.5612 5.52426C13.5894 5.54019 13.613 5.56317 13.6297 5.59094L14.1753 6.5H9.82469L10.37 5.59094ZM16.5 18.5H7.5V8H16.5V18.5ZM9.875 17H10.625C10.7245 17 10.8198 16.9605 10.8902 16.8902C10.9605 16.8198 11 16.7245 11 16.625V9.875C11 9.77554 10.9605 9.68016 10.8902 9.60984C10.8198 9.53951 10.7245 9.5 10.625 9.5H9.875C9.77554 9.5 9.68016 9.53951 9.60984 9.60984C9.53951 9.68016 9.5 9.77554 9.5 9.875V16.625C9.5 16.7245 9.53951 16.8198 9.60984 16.8902C9.68016 16.9605 9.77554 17 9.875 17Z" fill="#222532"/>
</svg>

<?xml version="1.0" encoding="utf-8"?>
<!-- Generator: Adobe Illustrator 24.0.0, SVG Export Plug-In . SVG Version: 6.00 Build 0)  -->
<svg version="1.1" id="Layer_1" xmlns="http://www.w3.org/2000/svg" xmlns:xlink="http://www.w3.org/1999/xlink" x="0px" y="0px"
	 viewBox="0 0 24 24" style="enable-background:new 0 0 24 24;" xml:space="preserve">
<style type="text/css">
	.st0{fill:none;}
	.st1{fill:#222532;}
</style>
<rect class="st0" width="24" height="24"/>
<path class="st1" d="M13.4,17h0.8c0.1,0,0.2,0,0.3-0.1s0.1-0.2,0.1-0.3V9.9c0-0.1,0-0.2-0.1-0.3s-0.2-0.1-0.3-0.1h-0.8
	c-0.1,0-0.2,0-0.3,0.1C13,9.7,13,9.8,13,9.9v6.8c0,0.1,0,0.2,0.1,0.3C13.2,17,13.3,17,13.4,17z M18.5,6.5h-2.6l-1.1-1.8
	c-0.1-0.2-0.3-0.4-0.5-0.5C14.1,4.1,13.8,4,13.6,4h-3.2c-0.3,0-0.5,0.1-0.7,0.2C9.5,4.3,9.3,4.5,9.1,4.7l-1,1.8H5.5
	c-0.1,0-0.3,0.1-0.4,0.1C5.1,6.7,5,6.9,5,7v0.5c0,0.1,0.1,0.3,0.1,0.4C5.2,7.9,5.4,8,5.5,8H6v10.5c0,0.4,0.2,0.8,0.4,1.1
	S7.1,20,7.5,20h9c0.4,0,0.8-0.2,1.1-0.4s0.4-0.7,0.4-1.1V8h0.5c0.1,0,0.3-0.1,0.4-0.1c0-0.1,0.1-0.3,0.1-0.4V7
	c0-0.1-0.1-0.3-0.1-0.4C18.8,6.6,18.6,6.5,18.5,6.5z M10.4,5.6C10.4,5.6,10.4,5.5,10.4,5.6c0.1-0.1,0.1-0.1,0.2-0.1h2.9h0.1
	c0,0,0.1,0,0.1,0.1l0.5,0.9H9.8L10.4,5.6z M16.5,18.5h-9V8h9V18.5z M9.9,17h0.8c0.1,0,0.2,0,0.3-0.1s0.1-0.2,0.1-0.3V9.9
	c0-0.1,0-0.2-0.1-0.3s-0.2-0.1-0.3-0.1H9.9c-0.1,0-0.2,0-0.3,0.1C9.5,9.7,9.5,9.8,9.5,9.9v6.8c0,0.1,0,0.2,0.1,0.3
	C9.7,17,9.8,17,9.9,17z"/>
</svg>
